!!!OTL: DER KIRSCHBAUM HAT SEIN LAUB VERLORN
!!!ARE: Europa, Mitteleuropa, Deutschland, Darmstadt
!!!SCT: K2119A
!!!YEM: Copyright 1995, estate of Helmut Schaffrath.
**kern
*ICvox
*Ivox
*M4/4
*k[f#c#]
*D:
{4d
=1
4a
4a
4b
4b
=2
4.a
8g
4f#}
{4d
=3
4a
4a
4b
4b
=4
2a
4f#}
{4d
=5
4a
4a
4b
4b
=6
4.a
8g
4f#}
{8dd
8dd
=7
2a
4f#
8dd
8dd
=8
2a
4f#}
==
!!!AGN: Kinder - Lied, Reigen, Tanz - Spiel
!!!ONB: ESAC (Essen Associative Code) Database: KINDER
!!!AMT: simple quadruple
!!!AIN: vox
!!!EED: Helmut Schaffrath
!!!EEV: 1.0
*-
